X:28
T:Pleal's Allemand
C:Aylemore MS
N:by ear, Andy warburton
Q:1/4=90
I:abc2nwc
M:2/4
L:1/16
K:G
A2|B2cB A2BA|G4D2G2|A2A2 ABc2|d4B4|
B2(cB) A2(BA)|G4D2G2|A2A2 ABA2|G6:|
|:Bc|d2d2 f3e|d2d2 g4|c2B2 c2d2|B4B3c|
d2d2 f3e|d2d2 g4|c2B2 c2A2|G6:|


